icons/puppet.svg

<svg xmlns="http://www.w3.org/2000/svg" viewBox="0 0 16 16"><path fill="#f7a91b" d="M13 10.1V5.888H9.747L8.116 4.2V1H4v4.186h3.227l1.631 1.686v2.256l-1.631 1.686H4V15h4.116v-3.2l1.643-1.7zM6.776 3.811h-1.4V2.375h1.4zm-.012 9.815H5.387v-1.4h1.377z" data-iconColor="Puppet"/></svg>

<!--
  - The MIT License (MIT)
  -
  - Copyright (c) 2015-2024 Elior "Mallowigi" Boukhobza
  -
  - Permission is hereby granted, free of charge, to any person obtaining a copy
  - of this software and associated documentation files (the "Software"), to deal
  - in the Software without restriction, including without limitation the rights
  - to use, copy, modify, merge, publish, distribute, sublicense, and/or sell
  - copies of the Software, and to permit persons to whom the Software is
  - furnished to do so, subject to the following conditions:
  -
  - The above copyright notice and this permission notice shall be included in all
  - copies or substantial portions of the Software.
  -
  - THE SOFTWARE IS PROVIDED "AS IS", WITHOUT WARRANTY OF ANY KIND, EXPRESS OR
  - IMPLIED, INCLUDING BUT NOT LIMITED TO THE WARRANTIES OF MERCHANTABILITY,
  - FITNESS FOR A PARTICULAR PURPOSE AND NONINFRINGEMENT. IN NO EVENT SHALL THE
  - AUTHORS OR COPYRIGHT HOLDERS BE LIABLE FOR ANY CLAIM, DAMAGES OR OTHER
  - LIABILITY, WHETHER IN AN ACTION OF CONTRACT, TORT OR OTHERWISE, ARISING FROM,
  - OUT OF OR IN CONNECTION WITH THE SOFTWARE OR THE USE OR OTHER DEALINGS IN THE
  - SOFTWARE.
  -
  -->

<svg xmlns="http://www.w3.org/2000/svg" width="16px" height="16px" viewBox="0 0 16 16">
  <path fill="#f7a91b" data-iconColor="Puppet"
        d="M13,10.1V5.888H9.747L8.116,4.2V1H4V5.186H7.227L8.858,6.872V9.128L7.227,10.814H4V15H8.116V11.8l1.643-1.7H13ZM6.776,3.811h-1.4V2.375h1.4V3.811ZM6.764,13.626H5.387v-1.4H6.764v1.4Z"
  />
</svg>
